src/assets/media/svg/sprite/layer1.svg

<svg xmlns="http://www.w3.org/2000/svg" width="16" height="16"><path d="M15.875 6.875h-6.75V.125h-2.25v6.75H.125v2.25h6.75v6.75h2.25v-6.75h6.75z"/></svg>

<svg width="16" height="16" viewBox="0 0 16 16"  xmlns="http://www.w3.org/2000/svg">
<path d="M15.875 6.875H9.125V0.125H6.875V6.875H0.125V9.125H6.875V15.875H9.125V9.125H15.875V6.875Z" />
</svg>
